X:1
T:When I was a Young Men
M:2/4
L:1/16
K:C
 cc cc B2B2| A2 Bcd-BG-A| c2B-A B2 AG| A2G2 A4| A c2 cc B2 B| AB Bcd-BG-A|\
 c2B-B B2 AG| A2G2 A3 A|A-B cd e2e2|g-f ece-c A2| AA-Bc-d ee-f|g-fe-d e4|\
 a2a2 g3 g| c2 ced-B GA| c2B-A B2 AG| A2G2 A4|

